svg/powerpoint_copyrighted.svg

<svg xmlns="http://www.w3.org/2000/svg" viewBox="0 0 32 32" enable-background="new 0 0 32 32"><path d="M 6 3 L 6 4 L 6 28 L 6 29 L 7 29 L 25 29 L 26 29 L 26 28 L 26 4 L 26 3 L 25 3 L 7 3 L 6 3 z M 8 5 L 24 5 L 24 27 L 8 27 L 8 5 z M 13 11 L 13 13 L 17 13 C 18.190196 13 19 13.809804 19 15 C 19 16.190196 18.190196 17 17 17 C 15.809804 17 15 16.190196 15 15 L 13 15 L 13 22 L 15 22 L 15 18.40625 C 15.59428 18.75605 16.260266 19 17 19 C 19.209804 19 21 17.209804 21 15 C 21 12.790196 19.209804 11 17 11 L 13 11 z" color="#000" overflow="visible" enable-background="accumulate"/></svg>

<svg xmlns="http://www.w3.org/2000/svg" viewBox="0 0 32 32"><path style="text-indent:0;text-align:start;line-height:normal;text-transform:none;block-progression:tb;-inkscape-font-specification:Bitstream Vera Sans" d="M6 3v26h20V3H6zm2 2h16v22H8V5zm5 6v2h4c1.19 0 2 .81 2 2s-.81 2-2 2-2-.81-2-2h-2v7h2v-3.594c.594.35 1.26.594 2 .594 2.21 0 4-1.79 4-4s-1.79-4-4-4h-4z" color="#000" overflow="visible" font-family="Bitstream Vera Sans"/></svg>
